svgs/light/viruses.svg

<svg xmlns="http://www.w3.org/2000/svg" viewBox="0 0 640 512"><!--! Font Awesome Pro 6.3.0 by @fontawesome - https://fontawesome.com License - https://fontawesome.com/license (Commercial License) Copyright 2023 Fonticons, Inc. --><path d="M240 224c0 8.836-7.164 16-16 16S208 232.8 208 224c0-8.838 7.164-16 16-16S240 215.2 240 224zM316.3 286.2l11.44 11.43c8.332 8.334 8.331 21.84-.0012 30.17c-4.168 4.168-9.624 6.248-15.08 6.248s-10.92-2.082-15.08-6.25L286.2 316.3C277.5 307.6 266.8 303.8 256.3 303.8c-21.93 0-42.97 17.03-42.97 42.75v16.16C213.3 374.5 203.8 384 192 384s-21.33-9.543-21.33-21.33v-16.16c0-25.72-21.04-42.75-42.97-42.75c-10.48 0-21.17 3.891-29.86 12.58l-11.43 11.43c-4.168 4.168-9.625 6.25-15.08 6.25s-10.91-2.08-15.08-6.248c-8.332-8.332-8.336-21.83-.0043-30.17L67.66 286.2c26.88-26.88 7.842-72.84-30.17-72.84H21.33C9.541 213.3 0 203.8 0 192c0-11.79 9.541-21.33 21.33-21.33h16.16c38.01 0 57.05-45.96 30.17-72.84L56.23 86.4c-8.332-8.332-8.331-21.83 .0012-30.17c4.168-4.168 9.624-6.247 15.08-6.247s10.92 2.081 15.08 6.249l11.43 11.43c8.693 8.693 19.38 12.58 29.86 12.58c21.93 0 42.97-17.03 42.97-42.75V21.33C170.7 9.542 180.2 0 192 0s21.33 9.542 21.33 21.33v16.16c0 25.72 21.04 42.75 42.97 42.75c10.48 0 21.17-3.891 29.86-12.58l11.43-11.43c4.168-4.168 9.625-6.249 15.08-6.249s10.92 2.079 15.08 6.247c8.332 8.334 8.333 21.84 .0012 30.17L316.3 97.83c-26.88 26.88-7.842 72.84 30.17 72.84h16.16C374.5 170.7 384 180.2 384 192c0 11.79-9.541 21.33-21.33 21.33h-16.16C308.5 213.3 289.5 259.3 316.3 286.2zM307.1 192c-13.38-8.053-24.17-20.29-30.44-35.43C271.3 141.5 270.2 125.2 273.1 110.1c-5.725 1.416-11.64 2.146-17.66 2.146C229 112.2 205.1 97.65 192 75.89C178.9 97.65 154.1 112.2 127.7 112.2c-6.02 0-11.94-.7305-17.66-2.146c3.736 15.13 2.701 31.38-3.553 46.47C100.2 171.7 89.42 183.9 76.04 192c13.38 8.053 24.17 20.29 30.44 35.42c6.254 15.1 7.289 31.35 3.553 46.47c5.725-1.416 11.64-2.145 17.66-2.145C154.1 271.8 178.9 286.3 192 308.1c13.12-21.77 37.04-36.36 64.31-36.36c6.018 0 11.94 .7285 17.66 2.145C270.2 258.8 271.3 242.5 277.5 227.4C283.8 212.3 294.6 200.1 307.1 192zM480 336c-8.836 0-16 7.162-16 16c0 8.836 7.164 16 16 16s16-7.164 16-16C496 343.2 488.8 336 480 336zM640 368c0 8.844-7.156 16-16 16h-12.12c-28.51 0-42.79 34.47-22.63 54.63l8.576 8.576c6.25 6.25 6.247 16.38-.0031 22.63c-3.125 3.125-7.216 4.684-11.31 4.684s-8.188-1.562-11.31-4.688l-8.576-8.576c-6.52-6.52-14.53-9.436-22.39-9.436C527.8 451.8 512 464.6 512 483.9V496c0 8.844-7.156 16-16 16S480 504.8 480 496v-12.12c0-19.29-15.78-32.06-32.23-32.06c-7.863 0-15.88 2.918-22.4 9.436l-8.576 8.576c-3.125 3.125-7.219 4.688-11.31 4.688s-8.191-1.566-11.32-4.691c-6.25-6.25-6.247-16.37 .0031-22.62l8.576-8.576C422.9 418.5 408.6 384 380.1 384H368c-8.844 0-16-7.156-16-16s7.156-16 16-16h12.12c28.51 0 42.79-34.47 22.63-54.63l-8.576-8.576c-6.25-6.25-6.247-16.38 .0031-22.63c3.125-3.125 7.216-4.684 11.31-4.684s8.188 1.562 11.31 4.688l8.576 8.576c6.52 6.52 14.53 9.436 22.4 9.436C464.2 284.2 480 271.4 480 252.1V240C480 231.2 487.2 224 496 224S512 231.2 512 240v12.12c0 19.29 15.78 32.06 32.23 32.06c7.861 0 15.88-2.918 22.39-9.436l8.576-8.576c3.125-3.125 7.219-4.688 11.31-4.688s8.188 1.566 11.31 4.691c6.25 6.25 6.25 16.37 0 22.62l-8.576 8.576C569.1 317.5 583.4 352 611.9 352H624C632.8 352 640 359.2 640 368zM569.5 368c-7.143-6.316-12.92-14.29-16.74-23.51c-3.814-9.207-5.363-18.91-4.787-28.41c-1.238 .0723-2.484 .1074-3.734 .1074c-19.2 0-36.45-8.439-48.23-21.8c-11.78 13.36-29.04 21.8-48.23 21.8c-1.25 0-2.496-.0352-3.734-.1074c.5762 9.502-.9727 19.21-4.787 28.41c-3.818 9.225-9.6 17.19-16.74 23.51c7.143 6.316 12.92 14.29 16.74 23.51c3.814 9.207 5.363 18.91 4.787 28.41c1.238-.0723 2.484-.1074 3.734-.1074c19.2 0 36.45 8.439 48.23 21.8c11.78-13.36 29.04-21.8 48.23-21.8c1.25 0 2.496 .0352 3.734 .1074c-.5762-9.502 .9727-19.21 4.787-28.41C556.6 382.3 562.4 374.3 569.5 368zM168 144C154.7 144 144 154.7 144 168C144 181.3 154.7 192 168 192S192 181.3 192 168C192 154.7 181.3 144 168 144z"/></svg>

<svg xmlns="http://www.w3.org/2000/svg" viewBox="0 0 640 512"><!-- Font Awesome Pro 6.0.0-alpha2 by @fontawesome - https://fontawesome.com License - https://fontawesome.com/license (Commercial License) --><path d="M240 224C240 232.836 232.836 240 224 240S208 232.836 208 224C208 215.162 215.164 208 224 208S240 215.162 240 224ZM316.336 286.17L327.771 297.604C336.104 305.938 336.104 319.438 327.771 327.77C323.604 331.938 318.146 334.02 312.687 334.02S301.771 331.938 297.604 327.77L286.17 316.336C277.477 307.643 266.793 303.754 256.309 303.754C234.375 303.754 213.334 320.787 213.334 346.506V362.666C213.334 374.457 203.791 384 192 384S170.666 374.457 170.666 362.666V346.506C170.666 320.785 149.627 303.754 127.691 303.754C117.209 303.754 106.521 307.645 97.83 316.336L86.396 327.77C82.229 331.938 76.771 334.02 71.313 334.02S60.396 331.938 56.229 327.77C47.896 319.438 47.896 305.938 56.229 297.604L67.664 286.17C94.541 259.291 75.506 213.332 37.494 213.332H21.334C9.541 213.332 0 203.791 0 192C0 180.207 9.541 170.666 21.334 170.666H37.494C75.506 170.666 94.541 124.709 67.664 97.83L56.229 86.395C47.896 78.062 47.896 64.562 56.229 56.229C60.396 52.061 65.854 49.979 71.312 49.979S82.23 52.061 86.396 56.229L97.83 67.662C106.523 76.355 117.209 80.244 127.693 80.244C149.625 80.244 170.666 63.211 170.666 37.492V21.332C170.666 9.541 180.209 0 192 0S213.334 9.541 213.334 21.332V37.492C213.334 63.213 234.373 80.244 256.307 80.244C266.789 80.244 277.479 76.354 286.17 67.662L297.604 56.229C301.771 52.061 307.229 49.979 312.687 49.979S323.605 52.061 327.771 56.229C336.104 64.562 336.104 78.062 327.771 86.395L316.336 97.83C289.459 124.709 308.494 170.666 346.506 170.666H362.666C374.459 170.666 384 180.207 384 192C384 203.791 374.459 213.332 362.666 213.332H346.506C308.494 213.332 289.459 259.291 316.336 286.17ZM307.961 192C294.584 183.947 283.793 171.707 277.523 156.574C271.27 141.475 270.234 125.227 273.971 110.1C268.246 111.516 262.326 112.246 256.307 112.246C229.037 112.246 205.121 97.654 192 75.889C178.879 97.654 154.963 112.246 127.693 112.246C121.674 112.246 115.754 111.516 110.029 110.1C113.766 125.227 112.73 141.475 106.477 156.574C100.207 171.707 89.416 183.947 76.039 192C89.416 200.053 100.207 212.291 106.477 227.424C112.73 242.525 113.766 258.771 110.029 273.898C115.754 272.482 121.674 271.754 127.691 271.754C154.963 271.754 178.879 286.344 192 308.109C205.121 286.344 229.037 271.754 256.309 271.754C262.326 271.754 268.246 272.482 273.971 273.898C270.234 258.771 271.27 242.525 277.523 227.424C283.793 212.291 294.584 200.053 307.961 192ZM480 336C471.164 336 464 343.162 464 352C464 360.836 471.164 368 480 368S496 360.836 496 352C496 343.162 488.836 336 480 336ZM640 368C640 376.844 632.844 384 624 384H611.881C583.371 384 569.094 418.469 589.252 438.627L597.828 447.203C604.078 453.453 604.078 463.578 597.828 469.828C594.703 472.953 590.609 474.516 586.516 474.516S578.328 472.953 575.203 469.828L566.627 461.252C560.107 454.732 552.096 451.816 544.232 451.816C527.781 451.816 512 464.592 512 483.879V496C512 504.844 504.844 512 496 512S480 504.844 480 496V483.879C480 464.59 464.219 451.816 447.77 451.816C439.906 451.816 431.891 454.734 425.373 461.252L416.797 469.828C413.672 472.953 409.578 474.516 405.484 474.516S397.297 472.953 394.172 469.828C387.922 463.578 387.922 453.453 394.172 447.203L402.748 438.627C422.906 418.469 408.629 384 380.119 384H368C359.156 384 352 376.844 352 368S359.156 352 368 352H380.119C408.629 352 422.906 317.531 402.748 297.373L394.172 288.797C387.922 282.547 387.922 272.422 394.172 266.172C397.297 263.047 401.391 261.484 405.484 261.484S413.672 263.047 416.797 266.172L425.373 274.748C431.893 281.268 439.906 284.184 447.77 284.184C464.219 284.184 480 271.408 480 252.121V240C480 231.156 487.156 224 496 224S512 231.156 512 240V252.121C512 271.41 527.781 284.184 544.232 284.184C552.094 284.184 560.109 281.266 566.627 274.748L575.203 266.172C578.328 263.047 582.422 261.484 586.516 261.484S594.703 263.047 597.828 266.172C604.078 272.422 604.078 282.547 597.828 288.797L589.252 297.373C569.094 317.531 583.371 352 611.881 352H624C632.844 352 640 359.156 640 368ZM569.494 368C562.352 361.684 556.572 353.715 552.752 344.49C548.937 335.283 547.389 325.578 547.965 316.076C546.727 316.148 545.48 316.184 544.23 316.184C525.035 316.184 507.779 307.744 496 294.387C484.221 307.744 466.965 316.184 447.77 316.184C446.52 316.184 445.273 316.148 444.035 316.076C444.611 325.578 443.063 335.283 439.248 344.49C435.43 353.715 429.648 361.684 422.506 368C429.648 374.316 435.43 382.285 439.248 391.51C443.063 400.717 444.611 410.422 444.035 419.924C445.273 419.852 446.52 419.816 447.77 419.816C466.965 419.816 484.221 428.256 496 441.613C507.779 428.256 525.035 419.816 544.23 419.816C545.48 419.816 546.727 419.852 547.965 419.924C547.389 410.422 548.937 400.717 552.752 391.51C556.572 382.285 562.352 374.316 569.494 368ZM168 144C154.746 144 144 154.744 144 168C144 181.254 154.746 192 168 192S192 181.254 192 168C192 154.744 181.254 144 168 144Z"/></svg>
